src/Assets/Icons/HomeScreen/DataManagementComponent/titleIcon3.svg

<svg width="84" height="68" viewBox="0 0 84 68" fill="none" xmlns="http://www.w3.org/2000/svg">
<path d="M31.5001 2.22655C23.5001 0.626548 14.1668 7.89322 10.5001 11.7265C11.8334 10.5404 13.5001 9.27973 9.50009 13.7266C4.50009 19.2851 3.50009 36.2266 4.00009 44.2266C4.50009 52.2266 20.0001 63.7266 33.5001 64.2266C47.0001 64.7266 65.5001 70.2266 76.0001 56.7266C86.5001 43.2266 75.0001 29.7266 71.5001 29.2266C68.0001 28.7266 67.0001 26.7266 59.0001 16.2266C51.0001 5.72656 41.5001 4.22655 31.5001 2.22655Z" fill="#0000FF"/>
<path d="M66.8306 23.9606C62.5294 10.0847 49.5296 0 34.1769 0C15.2971 0 0 15.2202 0 33.995C0 52.7697 15.2971 68 34.1769 68H61.5528C73.9504 68 84 58.0009 84 45.6656C84 35.1429 76.6829 26.3119 66.8306 23.9606ZM34.5058 57.0946H32.2641C32.3046 55.6647 32.3856 47.3573 25.7516 40.7064C18.8443 33.7785 10.0446 34.0554 8.66313 34.1208C8.70867 33.8137 8.73903 33.4613 8.73903 33.0635C8.73903 32.7061 8.70868 32.3838 8.6682 32.1019C10.0952 32.1623 18.819 32.3788 25.7566 25.5164C32.8865 18.4626 32.5272 9.46542 32.4513 8.09092C32.7347 8.11106 33.0434 8.12617 33.3672 8.12617C33.7113 8.12617 34.0301 8.11106 34.3287 8.09092C34.2528 9.47046 33.8884 18.4676 41.0234 25.5164C47.9255 32.3385 56.5937 32.1422 58.0258 32.0868C58.0359 32.404 58.0359 32.7413 58.0258 33.0937C58.0157 33.4613 57.9904 33.8137 57.96 34.141C56.5735 34.0806 47.8749 33.8439 41.0234 40.7013C34.3793 47.3523 34.4704 55.6698 34.5109 57.0896L34.5058 57.0946ZM70.0135 50.0459C69.4316 50.0207 66.5624 49.7186 63.6933 52.5986C60.9051 55.3878 61.3301 58.8769 61.3504 59.4711H59.3769C59.392 58.8719 60.0752 55.3878 57.2921 52.5986C54.3925 49.6935 51.574 50.0207 50.9971 50.0459C51.0174 49.92 51.0123 48.8275 50.9971 48.7117C51.5942 48.7369 54.3824 49.1094 57.2921 46.2295C60.2827 43.2691 59.4072 39.8555 59.3769 39.2815C59.4983 39.2916 61.2239 39.2916 61.3504 39.2815C61.3149 39.8605 60.7027 43.2741 63.6933 46.2295C66.5877 49.0893 69.4164 48.7369 70.0135 48.7117C70.0135 48.8426 70.0287 49.91 70.0135 50.0459Z" fill="white"/>
</svg>

<svg xmlns="http://www.w3.org/2000/svg" width="84" height="68" fill="none"><path fill="#00F" d="M31.5 2.227c-8-1.6-17.333 5.666-21 9.5 1.333-1.187 3-2.447-1 2-5 5.558-6 22.5-5.5 30.5s16 19.5 29.5 20 32 6 42.5-7.5-1-27-4.5-27.5-4.5-2.5-12.5-13-17.5-12-27.5-14"/><path fill="#fff" d="M66.83 23.96C62.53 10.086 49.53 0 34.178 0 15.297 0 0 15.22 0 33.995S15.297 68 34.177 68h27.376C73.95 68 84 58 84 45.666c0-10.523-7.317-19.354-17.17-21.705M34.507 57.096h-2.242c.04-1.43.122-9.738-6.512-16.389-6.908-6.928-15.707-6.65-17.089-6.585.046-.307.076-.66.076-1.058 0-.357-.03-.68-.07-.961 1.426.06 10.15.277 17.088-6.586 7.13-7.053 6.77-16.05 6.694-17.425.284.02.592.035.916.035.344 0 .663-.015.962-.035-.076 1.38-.44 10.377 6.694 17.425 6.902 6.823 15.57 6.626 17.003 6.57a17 17 0 0 1-.066 2.055c-1.386-.06-10.085-.297-16.937 6.56-6.644 6.651-6.553 14.969-6.512 16.389zm35.507-7.05c-.581-.024-3.45-.326-6.32 2.554-2.788 2.789-2.363 6.278-2.343 6.872h-1.973c.015-.6.698-4.083-2.085-6.872-2.9-2.905-5.718-2.578-6.295-2.553.02-.126.015-1.218 0-1.334.597.025 3.385.397 6.295-2.483 2.99-2.96 2.115-6.373 2.085-6.947.121.01 1.847.01 1.973 0-.035.579-.647 3.992 2.343 6.948 2.895 2.86 5.723 2.507 6.32 2.482 0 .13.016 1.198 0 1.334"/></svg>
